assets/Woozy face/Flat/woozy_face_flat.svg

<svg width="32" height="32" viewBox="0 0 32 32" fill="none" xmlns="http://www.w3.org/2000/svg">
<path d="M15.9989 29.9978C25.3333 29.9978 29.9978 23.7303 29.9978 15.9989C29.9978 8.26751 25.3333 2 15.9989 2C6.66443 2 2 8.26751 2 15.9989C2 23.7303 6.66443 29.9978 15.9989 29.9978Z" fill="#FFB02E"/>
<path d="M17.2837 12.9239C17.6032 12.0696 18.3996 11.6582 19.2849 11.5895L20.6683 13.7082L23.5622 12.545L24.4948 12.8041C25.3077 13.0299 26 13.6563 26 14.5C26 16.9853 23.9853 19 21.5 19C19.0147 19 17 16.9853 17 14.5C17 13.9455 17.1003 13.4144 17.2837 12.9239Z" fill="white"/>
<path d="M7 16C7.16667 17.1667 8.17157 19 11 19C15.5 19 15 13 15 13L13.9104 13.4086L11.7378 15.6066L8.42316 15.4663L7 16Z" fill="white"/>
<path d="M19.562 6.99609C20.1578 6.92162 21.1159 6.96737 22.0033 7.34713C22.8727 7.7192 23.6674 8.40577 24.0192 9.63732C24.0951 9.90283 24.3718 10.0566 24.6374 9.98072C24.9029 9.90486 25.0566 9.62811 24.9808 9.36259C24.5326 7.79414 23.494 6.89738 22.3967 6.42778C21.3174 5.96587 20.1755 5.91162 19.438 6.00382C19.164 6.03807 18.9696 6.28796 19.0039 6.56197C19.0381 6.83598 19.288 7.03035 19.562 6.99609Z" fill="#402A32"/>
<path d="M12.9851 9.62127C13.052 9.35337 12.8892 9.0819 12.6213 9.01493C12.3534 8.94795 12.0819 9.11083 12.0149 9.37873C11.6544 10.8206 10.8509 11.5275 10.015 11.8605C9.14985 12.2051 8.21031 12.1622 7.62126 12.0149C7.35337 11.948 7.0819 12.1108 7.01493 12.3787C6.94795 12.6466 7.11083 12.9181 7.37873 12.9851C8.12302 13.1711 9.28348 13.2283 10.385 12.7895C11.5157 12.3391 12.5455 11.3794 12.9851 9.62127Z" fill="#402A32"/>
<path d="M14.3843 22.4007C13.6099 23.3042 12.4751 24.5 10.5 24.5C8.53167 24.5 6.89212 23.3063 6.29289 22.7071C5.90237 22.3165 5.90237 21.6834 6.29289 21.2928C6.68342 20.9023 7.31658 20.9023 7.70711 21.2928C8.10788 21.6936 9.26833 22.5 10.5 22.5C11.5249 22.5 12.1401 21.9458 12.8657 21.0992C12.9275 21.0272 12.9922 20.9502 13.0595 20.8701C13.3533 20.5209 13.6973 20.1118 14.0602 19.7943C14.54 19.3745 15.1715 19 16 19C17.282 19 18.1378 19.63 18.7638 20.0908C18.8105 20.1253 18.8564 20.159 18.9007 20.1912C19.5435 20.6588 20.0769 21 21 21C22.665 21 23.5197 20.1676 23.6679 19.9453C23.9743 19.4857 24.5952 19.3616 25.0547 19.6679C25.5142 19.9743 25.6384 20.5951 25.3321 21.0547C24.8136 21.8323 23.335 23 21 23C19.4231 23 18.4565 22.3411 17.7243 21.8087L17.6911 21.7845C16.9753 21.2638 16.6125 21 16 21C15.8285 21 15.6475 21.0629 15.3773 21.2994C15.1404 21.5066 14.9241 21.7629 14.6417 22.0975C14.5619 22.192 14.4766 22.2931 14.3843 22.4007Z" fill="#402A32"/>
<path d="M21 17C22.6569 17 24 15.6568 24 14C24 13.4803 23.8679 12.9914 23.6353 12.5653L20.6095 11.7248C20.1505 11.5972 19.6636 11.5498 19.2042 11.5966C18.4731 12.1437 18 13.0166 18 14C18 15.6568 19.3431 17 21 17Z" fill="#402A32"/>
<path d="M11 17C12.6568 17 14 15.6568 14 14C14 13.7937 13.9791 13.5922 13.9395 13.3977L8.38928 15.479C8.90494 16.3873 9.8809 17 11 17Z" fill="#402A32"/>
</svg>

<svg xmlns="http://www.w3.org/2000/svg" width="32" height="32" fill="none"><path fill="#FFB02E" d="M15.999 29.998c9.334 0 13.999-6.268 13.999-14 0-7.73-4.665-13.998-14-13.998C6.665 2 2 8.268 2 15.999c0 7.731 4.664 13.999 13.999 13.999Z"/><path fill="#fff" d="M17.284 12.924c.32-.854 1.116-1.266 2-1.335l1.384 2.12 2.894-1.164.933.26c.813.225 1.505.851 1.505 1.695a4.5 4.5 0 1 1-8.716-1.576ZM7 16c.167 1.167 1.172 3 4 3 4.5 0 4-6 4-6l-1.09.409-2.172 2.198-3.315-.14L7 16Z"/><path fill="#402A32" d="M19.562 6.996a4.99 4.99 0 0 1 2.441.351c.87.372 1.664 1.059 2.016 2.29a.5.5 0 0 0 .962-.274c-.448-1.569-1.487-2.466-2.584-2.935a5.986 5.986 0 0 0-2.959-.424.5.5 0 1 0 .124.992ZM12.985 9.621a.5.5 0 0 0-.97-.242c-.36 1.442-1.164 2.149-2 2.482-.865.344-1.805.301-2.394.154a.5.5 0 0 0-.242.97c.744.186 1.904.243 3.006-.195 1.13-.45 2.16-1.41 2.6-3.169ZM14.384 22.4c-.774.904-1.909 2.1-3.884 2.1-1.968 0-3.608-1.194-4.207-1.793a1 1 0 0 1 1.414-1.414c.4.4 1.561 1.207 2.793 1.207 1.025 0 1.64-.554 2.366-1.4l.194-.23c.293-.35.637-.758 1-1.076.48-.42 1.111-.794 1.94-.794 1.282 0 2.138.63 2.764 1.09l.137.101c.643.468 1.176.809 2.099.809 1.665 0 2.52-.832 2.668-1.055a1 1 0 0 1 1.664 1.11C24.814 21.832 23.335 23 21 23c-1.577 0-2.544-.659-3.276-1.191l-.033-.024C16.975 21.264 16.613 21 16 21c-.171 0-.352.063-.623.3-.237.207-.453.463-.735.797-.08.095-.165.196-.258.304ZM21 17a3 3 0 0 0 2.635-4.435l-3.026-.84a3.853 3.853 0 0 0-1.405-.128A3 3 0 0 0 21 17ZM11 17a3 3 0 0 0 2.94-3.602l-5.55 2.081A2.999 2.999 0 0 0 11 17Z"/></svg>
